X: 20541
Q: "With energy."
M: 3/4
L: 1/8
K: G
d2 |\
d4g2 | d4B2 | (c2A2)d2 | B2G2D2 |!f!\
(c2A2)d2 | B2G2D2 !f!| GGG GGG | G4 d2 |\
(g2f2)e2 | (d2c2)B2 |
c4d2 | e4f2 |\
(g2f2)e2 | d4g2 |\
(a2g2)f2 | g4 !f!D2 | GGG GGG | !ff!G4 A2 |\


